svg/logos/bxl-gitlab.svg

<svg xmlns="http://www.w3.org/2000/svg" width="24" height="24"><path d="M20.892 9.889a.664.664 0 0 0-.025-.087l-2.104-6.479a.84.84 0 0 0-.8-.57.822.822 0 0 0-.789.575l-2.006 6.175H8.834L6.826 3.327a.823.823 0 0 0-.786-.575h-.006a.837.837 0 0 0-.795.575L3.133 9.815c0 .005-.005.01-.007.016l-1.067 3.281a1.195 1.195 0 0 0 .435 1.34l9.227 6.706c.167.121.393.12.558-.003l9.229-6.703a1.2 1.2 0 0 0 .435-1.34l-1.051-3.223zM17.97 3.936l1.809 5.566H16.16l1.81-5.566zm-11.94 0 1.812 5.566H4.228L6.03 3.936zm-2.982 9.752a.253.253 0 0 1-.093-.284l.793-2.437 5.817 7.456-6.517-4.735zm1.499-3.239h3.601l2.573 7.916-6.174-7.916zm7.452 8.794-2.856-8.798h5.718l-1.792 5.515-1.07 3.283zm1.282-.877 2.467-7.588.106-.329h3.604l-5.586 7.156-.591.761zm7.671-4.678-6.519 4.733.022-.029 5.794-7.425.792 2.436a.25.25 0 0 1-.089.285z"/></svg>

<svg xmlns="http://www.w3.org/2000/svg" width="24" height="24" viewBox="0 0 24 24"><path d="M20.892,9.889c-0.006-0.029-0.015-0.059-0.025-0.087l-2.104-6.479c-0.116-0.342-0.438-0.572-0.8-0.57 c-0.361-0.002-0.681,0.231-0.789,0.575l-2.006,6.175H8.834L6.826,3.327C6.718,2.984,6.398,2.751,6.04,2.752H6.034 c-0.361,0-0.682,0.232-0.795,0.575L3.133,9.815c0,0.005-0.005,0.01-0.007,0.016l-1.067,3.281c-0.161,0.494,0.013,1.034,0.435,1.34 l9.227,6.706c0.167,0.121,0.393,0.12,0.558-0.003l9.229-6.703c0.419-0.306,0.596-0.846,0.435-1.34L20.892,9.889z M17.97,3.936 l1.809,5.566H16.16L17.97,3.936z M6.03,3.936l1.812,5.566H4.228L6.03,3.936z M3.048,13.688c-0.09-0.064-0.127-0.18-0.093-0.284 l0.793-2.437l5.817,7.456L3.048,13.688z M4.547,10.449h3.601l2.573,7.916L4.547,10.449z M11.999,19.243l-2.856-8.798h5.718 l-1.792,5.515L11.999,19.243z M13.281,18.366l2.467-7.588l0.106-0.329h3.604l-5.586,7.156L13.281,18.366z M20.952,13.688 l-6.519,4.733l0.022-0.029l5.794-7.425l0.792,2.436C21.078,13.509,21.04,13.624,20.952,13.688z"/></svg>
